svg/black/powr.svg

<svg height="32" viewBox="0 0 32 32" width="32" xmlns="http://www.w3.org/2000/svg"><path d="m16 32c-8.836556 0-16-7.163444-16-16s7.163444-16 16-16 16 7.163444 16 16-7.163444 16-16 16zm11.9951649-16.0455467c-.0186632-.0844369-.0877101-.1465994-.1710449-.1586618l-2.2570133-2.2627293.8938498-3.3445078c.0293278-.1096583-.0355489-.22240067-.1449985-.25180279l-3.3557477-.90145929-.8401846-3.14335352c-.002256-.01398142-.0058108-.0274831-.0108014-.04050501l-.0231751-.08676709c-.0140828-.05270449-.0484012-.09759583-.0955035-.12487332s-.1031602-.03467942-.1556632-.02056092l-3.2821888.88165227-2.4368086-2.44298003c-.0768403-.07717199-.21302-.07724053-.289997 0l-2.4079594 2.41405767-3.1743115-.85272991c-.0524347-.01404996-.1084242-.00671657-.1555948.02056092-.0471023.02727749-.081489.07216883-.09557187.12487332l-.87416109 3.27062562-3.35574769.90145929c-.05257135.0141185-.09734929.04859231-.12455787.09581389-.02720858.0472216-.03452345.1032844-.02050898.1559889l.86500041 3.2364259-2.422384 2.4285189c-.03848852.0385174-.06009131.0908107-.06009131.1453657 0 .0545549.02160279.1067797.06009131.1453657l2.49074727 2.4971238-.86500042 3.2363574c-.01401447.0527045-.0066996.1087673.02050898.1560574.02720858.0472216.07198652.0816268.12455788.0957453l3.20842484.8618453.8847574 3.3102396c.02454242.0919073.10739874.1524935.19798004.1524935.0175693 0 .0354122-.0023302.0531866-.0071278l3.2821205-.8816522 2.3685137 2.3744436c.0399925.0401623.0924955.0602435.1449985.0602435.0524346 0 .1049376-.0200812.1449985-.0602435l2.397363-2.4034345 3.3899977.9106431c.0177745.0047976.0356856.0071278.053255.0071278.090513 0 .1734376-.0605862.1979117-.1524935l.884689-3.3102396 3.2084932-.8618453c.1094496-.0294021.1743263-.1420759.1449985-.2518027l-.8938497-3.3445079 2.3065766-2.3124867.07602-.0353648c.0872315-.0407106.1345389-.1367301.1138248-.2308991zm-2.6189968 2.120105-.1716601-.642049 1.5172543-.706953zm.4911901 3.426546-2.1008715-1.2310509.0000683-.0003427 1.3973452-1.4007469zm-2.2109364-.8192842 2.0104269 1.1780037-2.5051719.6729589zm-1.7969968 5.1349528-1.2510478-2.1723983 1.9733057-.5301291zm-2.5040098-1.1246823 1.4812269 1.0427128-1.9884823-.5341727zm-3.1794388 2.6059596v-2.3895902l1.8798531.5049762zm-.4101796-2.3528547v2.3528547l-1.8509355-1.8556231zm-5.1885669.9680767 1.1813173-2.0511574 1.3639839 1.3674382zm-1.08041305-2.7990267.73483675.1974534-.169746 1.9167576zm-3.08892586-1.2553812 2.00981169-1.1932188.49905184 1.8671372zm1.80608915-1.5501564-2.00174482 1.1884212.67351491-2.5200834zm-3.47955356-4.0699656h2.45854817l-.51956083 1.9438979zm2.07913204-1.5752407-1.84286859.8586241 1.63436062-1.6384998zm-.67160074-4.1014924 2.02526179 1.17396-1.34983271 1.3531827zm2.33843391.8599948-.01292066.0129534-2.12097035-1.2293375 2.64921332-.71168198zm1.77156571-5.03948164 1.1711311 2.03361211-1.84731218.49620355zm2.3423306.91509804-1.4270148-1.00453804 1.9157438.51463984zm3.1715087-2.59794084v2.40295477l-1.8903811-.50778619zm.4101796 2.43969029v-2.43969029l1.9192987 1.92415947zm5.3957076-1.0236597-1.2457155 2.1629403-1.4382948-1.44193735zm.3028492 2.62789125.1451353-1.63849975.4831232 1.8073049zm3.8497407 1.4598939-2.1303361 1.2029509-.5111522-1.91250828zm-1.9239474 1.5583807 2.1382662-1.2074058-.7063292 2.6428322zm3.4412017 4.0313797h-2.2785476l.4815508-1.8016164zm-2.3652323.4112184h1.99067l-1.7702668.824767zm-.3096856 1.0717722.0857959-.3208874.0667909.2497466zm-.1383672.5179296.3986945-.1858022.2143873.8019445-1.0624336 1.0650556zm-1.241682 3.0570662-.4823029 1.8044264-1.7998681.4834558zm-2.8666086 2.292337-1.5598446-2.7086271 5.1830978-2.4148116-.5443767 2.0367648zm-.0879835.6696007.962213 1.6708489-1.5443946-1.0871244zm-1.0912144.2254847.3913113-.1052034-.223001.2235658zm-.5166213.1387177.390491.2748995-.6239515.6254632-1.5590927-.4188259zm-3.3772137.4815368-1.6669699.4477483-1.2202843-1.2233063zm-4.5573005-1.8683709.2976537.2984075-.3165219-.0849851zm-.3781856-.3792119-.0429321.4845524-.89425989-.2402201-.43219258-1.6171164zm-2.16178319-2.7487209-1.14132475-1.1441467.41776793-1.5629726zm-1.02503883-3.8350914h-1.83616899l1.63285663-.7607541zm.46480185-1.0720464-.16331984.6111391-.12715568-.4757797zm.13843562-.5179296-.53672001.2500208-.25116664-.9397712 1.32809318-1.3314566zm1.33260516-3.3971438.39274697-1.46935195 1.46564012-.39374162zm2.68318989-2.68998526-.9191441-1.59614425 1.4753476 1.03853209zm1.1605348-.13213818-.6128083.16462444.3492679-.35022102zm.5166896-.13878621-.4857894-.34199665.6054251-.60688983 1.7063471.45837145zm3.4108484-.49051503 1.59847-.42938056 1.1702424 1.17313759zm4.5761688 1.97432812-.4350639-.43616566.4626826.12432503zm.3781856.37921191.0516826-.58303917.7876132.21157187.4427205 1.65673045zm2.0743466 2.66106285 1.2492703 1.2523657-.4572819 1.7107371zm-5.7747135 6.8604253 1.5869165-2.8282917.9980353 1.688874c.0374631.0633962.1050743.100817.1764456.100817.0150399 0 .0302166-.0016448.0453932-.0050716.0868214-.0197385.1510145-.0934152.1588762-.1823069l.1623628-1.8335543h3.2147826l-.3468752 1.2976682-5.5274436 2.5753238zm-.7836482 1.3968404.5499825-.9802762.328759.5709082zm-3.4863899-.370782.5195609-.9022817 3.230848-.0362557-.9335688 1.6639267c-.0436841.0777888-.0322675.1749734.0281657.2404942.0397874.0430409.0946147.0659321.1506042.0659321.0291911 0 .0586557-.0062368.0864112-.0191217l1.4890203-.693794 1.5991536 2.7769579-1.2827684.3445325zm-.2059101.3575544 4.5767156 3.2216907-2.1472218.5768023-3.9984308-1.0741025zm.2487739-1.2544902-.3798947.6597314-.9164779-.6451332zm-2.5886435-3.1543879h1.0144426l1.6206196 2.7426212-1.983902.0223428c-.0890774.0009595-.167285.0594896-.1936048.1447489-.0263882.0852593.0051272.177852.0780025.2291172l1.4672808 1.032775-1.6021616 2.7820982-.9336371-.9359331zm-.4117519 0-.4993937 5.6384897-1.62902827-1.6330853-1.0705004-4.0054044zm1.183163-.4112184h-.7349734l.0957769-1.0817101zm1.4492329-3.8213842.5098533.8853533-1.5669545 2.7927898-1.0028207-1.6970984c-.0453249-.0768293-.1348124-.1154838-.2218388-.0957453-.0868214.0197384-.1510145.0934151-.1589446.1823068l-.155253 1.753778h-3.1669967l.34694358-1.2980109zm-.2059101-.3575544-5.07173407 2.3629295.63523147-2.3767053 2.807611-2.81465294zm5.0072675.1621571-.4827814.8382688-3.2224393.0362557.9363033-1.6687243c.0436841-.0777888.0322674-.1749734-.0282341-.2404257-.0605015-.0655208-.15621-.0843683-.236947-.0468103l-1.5997689.7453333-1.6124843-2.79998612 1.296441-.34823346zm.2059101-.3574858-4.6391996-3.26562249 2.1806515-.58578063 4.0499766 1.08794684zm-.2119945 1.1904087.3431153-.5957184.8275373.5825594zm2.5161784 3.5608088-.1028867 1.1614864-.6862988-1.1614864zm-6.5678641-3.7295454-.3701871-.6428029.9894899-.4609758zm3.5624782 6.4657241c-.0064945-.0006853-.0127839-.0026044-.0192784-.0027414l-3.3987482.0381062-1.7037494-2.8832579 1.6796171-2.9936014 3.3264883-.0374209c.0018458.0037009.0025978.0076761.004717.0112399l1.745656 2.9541931zm3.9422362-8.6640292 1.5415916 1.5454273 1.0613397 3.9712048h-3.091592zm-.9004126 5.5166321h-1.0686546l-1.6171331-2.7367956 1.9449349-.0218631c.0890774-.0010281.167285-.0594896.1936048-.1447489.0263882-.0852593-.0051272-.177852-.0780025-.2291172l-1.3784085-.9702698 1.5791914-2.74207293.9466946.94902355zm.6339325-7.15766767-.7606097-.20430701.920238-1.59799474zm-10.838449 14.78412427.7844001.2106809-.9490189 1.6480263z"/></svg>

<svg xmlns="http://www.w3.org/2000/svg" width="32" height="32" viewBox="0 0 32 32">
  <path fill="#FFF" d="M16,32 C7.163444,32 0,24.836556 0,16 C0,7.163444 7.163444,0 16,0 C24.836556,0 32,7.163444 32,16 C32,24.836556 24.836556,32 16,32 Z M27.9951649,15.9544533 C27.9765017,15.8700164 27.9074548,15.8078539 27.82412,15.7957915 L25.5671067,13.5330622 L26.4609565,10.1885544 C26.4902843,10.0788961 26.4254076,9.96615373 26.315958,9.93675161 L22.9602103,9.03529232 L22.1200257,5.8919388 C22.1177697,5.87795738 22.1142149,5.8644557 22.1092243,5.85143379 L22.0860492,5.7646667 C22.0719664,5.71196221 22.037648,5.66707087 21.9905457,5.63979338 C21.9434434,5.61251589 21.8873855,5.60511396 21.8348825,5.61923246 L18.5526937,6.50088473 L16.1158851,4.0579047 C16.0390448,3.98073271 15.9028651,3.98066417 15.8258881,4.0579047 L13.4179287,6.47196237 L10.2436172,5.61923246 C10.1911825,5.6051825 10.135193,5.61251589 10.0880224,5.63979338 C10.0409201,5.66707087 10.0065334,5.71196221 9.99245053,5.7646667 L9.11828944,9.03529232 L5.76254175,9.93675161 C5.7099704,9.95087011 5.66519246,9.98534392 5.63798388,10.0325655 C5.6107753,10.0797871 5.60346043,10.1358499 5.6174749,10.1885544 L6.48247531,13.4249803 L4.06009131,15.8534992 C4.02160279,15.8920166 4,15.9443099 4,15.9988649 C4,16.0534198 4.02160279,16.1056446 4.06009131,16.1442306 L6.55083858,18.6413544 L5.68583816,21.8777118 C5.67182369,21.9304163 5.67913856,21.9864791 5.70634714,22.0337692 C5.73355572,22.0809908 5.77833366,22.115396 5.83090502,22.1295145 L9.03932986,22.9913598 L9.92408726,26.3015994 C9.94862968,26.3935067 10.031486,26.4540929 10.1220673,26.4540929 C10.1396366,26.4540929 10.1574795,26.4517627 10.1752539,26.4469651 L13.4573744,25.5653129 L15.8258881,27.9397565 C15.8658806,27.9799188 15.9183836,28 15.9708866,28 C16.0233212,28 16.0758242,27.9799188 16.1158851,27.9397565 L18.5132481,25.536322 L21.9032458,26.4469651 C21.9210203,26.4517627 21.9389314,26.4540929 21.9565008,26.4540929 C22.0470138,26.4540929 22.1299384,26.3935067 22.1544125,26.3015994 L23.0391015,22.9913598 L26.2475947,22.1295145 C26.3570443,22.1001124 26.421921,21.9874386 26.3925932,21.8777118 L25.4987435,18.5332039 L27.8053201,16.2207172 L27.8813401,16.1853524 C27.9685716,16.1446418 28.015879,16.0486223 27.9951649,15.9544533 Z M25.3761681,18.0745583 L25.204508,17.4325093 L26.7217623,16.7255563 L25.3761681,18.0745583 Z M25.8673582,21.5011043 L23.7664867,20.2700534 L23.766555,20.2697107 L25.1639002,18.8689638 L25.8673582,21.5011043 Z M23.6564218,20.6818201 L25.6668487,21.8598238 L23.1616768,22.5327827 L23.6564218,20.6818201 Z M21.859425,25.8167729 L20.6083772,23.6443746 L22.5816829,23.1142455 L21.859425,25.8167729 Z M19.3554152,24.6920906 L20.8366421,25.7348034 L18.8481598,25.2006307 L19.3554152,24.6920906 Z M16.1759764,27.2980502 L16.1759764,24.90846 L18.0558295,25.4134362 L16.1759764,27.2980502 Z M15.7657968,24.9451955 L15.7657968,27.2980502 L13.9148613,25.4424271 L15.7657968,24.9451955 Z M10.5772299,25.9132722 L11.7585472,23.8621148 L13.1225311,25.229553 L10.5772299,25.9132722 Z M9.49681685,23.1142455 L10.2316536,23.3116989 L10.0619076,25.2284565 L9.49681685,23.1142455 Z M6.40789099,21.8588643 L8.41770268,20.6656455 L8.91675452,22.5327827 L6.40789099,21.8588643 Z M8.21398014,20.3087079 L6.21223532,21.4971291 L6.88575023,18.9770457 L8.21398014,20.3087079 Z M4.73442658,16.2387423 L7.19297475,16.2387423 L6.67341392,18.1826402 L4.73442658,16.2387423 Z M6.81355862,14.6635016 L4.97069003,15.5221257 L6.60505065,13.8836259 L6.81355862,14.6635016 Z M6.14195788,10.5620092 L8.16721967,11.7359692 L6.81738696,13.0891519 L6.14195788,10.5620092 Z M8.48039179,11.422004 L8.46747113,11.4349574 L6.34650078,10.2056199 L8.9957141,9.49393792 L8.48039179,11.422004 Z M10.2519575,6.38252236 L11.4230886,8.41613447 L9.57577642,8.91233802 L10.2519575,6.38252236 Z M12.5942881,7.2976204 L11.1672733,6.29308236 L13.0830171,6.8077222 L12.5942881,7.2976204 Z M15.7657968,4.69967956 L15.7657968,7.10263433 L13.8754157,6.59484814 L15.7657968,4.69967956 Z M16.1759764,7.13936985 L16.1759764,4.69967956 L18.0952751,6.62383903 L16.1759764,7.13936985 Z M21.571684,6.11571015 L20.3259685,8.27865045 L18.8876737,6.8367131 L21.571684,6.11571015 Z M21.8745332,8.7436014 L22.0196685,7.10510165 L22.5027917,8.91240655 L21.8745332,8.7436014 Z M25.7242739,10.2034953 L23.5939378,11.4064462 L23.0827856,9.49393792 L25.7242739,10.2034953 Z M23.8003265,11.761876 L25.9385927,10.5544702 L25.2322635,13.1973024 L23.8003265,11.761876 Z M27.2415282,15.7932557 L24.9629806,15.7932557 L25.4445314,13.9916393 L27.2415282,15.7932557 Z M24.8762959,16.2044741 L26.8669659,16.2044741 L25.0966991,17.0292411 L24.8762959,16.2044741 Z M24.5666103,17.2762463 L24.6524062,16.9553589 L24.7191971,17.2051055 L24.5666103,17.2762463 Z M24.4282431,17.7941759 L24.8269376,17.6083737 L25.0413249,18.4103182 L23.9788913,19.4753738 L24.4282431,17.7941759 Z M23.1865611,20.8512421 L22.7042582,22.6556685 L20.9043901,23.1391243 L23.1865611,20.8512421 Z M20.3199525,23.1435791 L18.7601079,20.434952 L23.9432057,18.0201404 L23.398829,20.0569052 L20.3199525,23.1435791 Z M20.231969,23.8131798 L21.194182,25.4840287 L19.6497874,24.3969043 L20.231969,23.8131798 Z M19.1407546,24.0386645 L19.5320659,23.9334611 L19.3090649,24.1570269 L19.1407546,24.0386645 Z M18.6241333,24.1773822 L19.0146243,24.4522817 L18.3906728,25.0777449 L16.8315801,24.658919 L18.6241333,24.1773822 Z M15.2469196,24.658919 L13.5799497,25.1066673 L12.3596654,23.883361 L15.2469196,24.658919 Z M10.6896191,22.7905481 L10.9872728,23.0889556 L10.6707509,23.0039705 L10.6896191,22.7905481 Z M10.3114335,22.4113362 L10.2685014,22.8958886 L9.37424151,22.6556685 L8.94204893,21.0385521 L10.3114335,22.4113362 Z M8.14965031,19.6626153 L7.00832556,18.5184686 L7.42609349,16.955496 L8.14965031,19.6626153 Z M7.12461148,15.8275239 L5.28844249,15.8275239 L6.92129912,15.0667698 L7.12461148,15.8275239 Z M7.58941333,14.7554775 L7.42609349,15.3666166 L7.29893781,14.8908369 L7.58941333,14.7554775 Z M7.72784895,14.2375479 L7.19112894,14.4875687 L6.9399623,13.5477975 L8.26805548,12.2163409 L7.72784895,14.2375479 Z M9.06045411,10.8404041 L9.45320108,9.37105215 L10.9188412,8.97731053 L9.06045411,10.8404041 Z M11.743644,8.15041884 L10.8244999,6.55427459 L12.2998475,7.59280668 L11.743644,8.15041884 Z M12.9041788,8.01828066 L12.2913705,8.1829051 L12.6406384,7.83268408 L12.9041788,8.01828066 Z M13.4208684,7.87949445 L12.935079,7.5374978 L13.5405041,6.93060797 L15.2468512,7.38897942 L13.4208684,7.87949445 Z M16.8317168,7.38897942 L18.4301868,6.95959886 L19.6004292,8.13273645 L16.8317168,7.38897942 Z M21.4078856,9.36330754 L20.9728217,8.92714188 L21.4355043,9.05146691 L21.4078856,9.36330754 Z M21.7860712,9.74251945 L21.8377538,9.15948028 L22.625367,9.37105215 L23.0680875,11.0277826 L21.7860712,9.74251945 Z M23.8604178,12.4035823 L25.1096881,13.655948 L24.6524062,15.3666851 L23.8604178,12.4035823 Z M18.0857043,19.2640076 L19.6726208,16.4357159 L20.6706561,18.1245899 C20.7081192,18.1879861 20.7757304,18.2254069 20.8471017,18.2254069 C20.8621416,18.2254069 20.8773183,18.2237621 20.8924949,18.2203353 C20.9793163,18.2005968 21.0435094,18.1269201 21.0513711,18.0380284 L21.2137339,16.2044741 L24.4285165,16.2044741 L24.0816413,17.5021423 L18.5541977,20.0774661 L18.0857043,19.2640076 Z M17.3020561,20.660848 L17.8520386,19.6805718 L18.1807976,20.25148 L17.3020561,20.660848 Z M13.8156662,20.290066 L14.3352271,19.3877843 L17.5660751,19.3515286 L16.6325063,21.0154553 C16.5888222,21.0932441 16.6002388,21.1904287 16.660672,21.2559495 C16.7004594,21.2989904 16.7552867,21.3218816 16.8112762,21.3218816 C16.8404673,21.3218816 16.8699319,21.3156448 16.8976874,21.3027599 L18.3867077,20.6089659 L19.9858613,23.3859238 L18.7030929,23.7304563 L13.8156662,20.290066 Z M13.6097561,20.6476204 L18.1864717,23.8693111 L16.0392499,24.4461134 L12.0408191,23.3720109 L13.6097561,20.6476204 Z M13.85853,19.3931302 L13.4786353,20.0528616 L12.5621574,19.4077284 L13.85853,19.3931302 Z M11.2698865,16.2387423 L12.2843291,16.2387423 L13.9049487,18.9813635 L11.9210467,19.0037063 C11.8319693,19.0046658 11.7537617,19.0631959 11.7274419,19.1484552 C11.7010537,19.2337145 11.7325691,19.3263072 11.8054444,19.3775724 L13.2727252,20.4103474 L11.6705636,23.1924456 L10.7369265,22.2565125 L11.2698865,16.2387423 Z M10.8581346,16.2387423 L10.3587409,21.877232 L8.72971263,20.2441467 L7.65921223,16.2387423 L10.8581346,16.2387423 Z M12.0412976,15.8275239 L11.3063242,15.8275239 L11.4021011,14.7458138 L12.0412976,15.8275239 Z M13.4905305,12.0061397 L14.0003838,12.891493 L12.4334293,15.6842828 L11.4306086,13.9871844 C11.3852837,13.9103551 11.2957962,13.8717006 11.2087698,13.8914391 C11.1219484,13.9111775 11.0577553,13.9848542 11.0498252,14.0737459 L10.8945722,15.8275239 L7.7275755,15.8275239 L8.07451908,14.529513 L13.4905305,12.0061397 Z M13.2846204,11.6485853 L8.21288633,14.0115148 L8.8481178,11.6348095 L11.6557288,8.82015656 L13.2846204,11.6485853 Z M18.2918879,11.8107424 L17.8091065,12.6490112 L14.5866672,12.6852669 L15.5229705,11.0165426 C15.5666546,10.9387538 15.5552379,10.8415692 15.4947364,10.7761169 C15.4342349,10.7105961 15.3385264,10.6917486 15.2577894,10.7293066 L13.6580205,11.4746399 L12.0455362,8.67465378 L13.3419772,8.32642032 L18.2918879,11.8107424 Z M18.497798,11.4532566 L13.8585984,8.18763411 L16.0392499,7.60185348 L20.0892265,8.68980032 L18.497798,11.4532566 Z M18.2858035,12.6436653 L18.6289188,12.0479469 L19.4564561,12.6305063 L18.2858035,12.6436653 Z M20.8019819,16.2044741 L20.6990952,17.3659605 L20.0127964,16.2044741 L20.8019819,16.2044741 Z M14.2341178,12.4749287 L13.8639307,11.8321258 L14.8534206,11.37115 L14.2341178,12.4749287 Z M17.796596,18.9406528 C17.7901015,18.9399675 17.7838121,18.9380484 17.7773176,18.9379114 L14.3785694,18.9760176 L12.67482,16.0927597 L14.3544371,13.0991583 L17.6809254,13.0617374 C17.6827712,13.0654383 17.6835232,13.0694135 17.6856424,13.0729773 L19.4312984,16.0271704 L17.796596,18.9406528 Z M21.7388322,10.2766236 L23.2804238,11.8220509 L24.3417635,15.7932557 L21.2501715,15.7932557 L21.7388322,10.2766236 Z M20.8384196,15.7932557 L19.769765,15.7932557 L18.1526319,13.0564601 L20.0975668,13.034597 C20.1866442,13.0335689 20.2648518,12.9751074 20.2911716,12.8898481 C20.3175598,12.8045888 20.2860444,12.7119961 20.2131691,12.6607309 L18.8347606,11.6904611 L20.413952,8.94838817 L21.3606466,9.89741172 L20.8384196,15.7932557 Z M21.4723521,8.63558803 L20.7117424,8.43128102 L21.6319804,6.83328628 L21.4723521,8.63558803 Z M10.6339031,23.4197123 L11.4183032,23.6303932 L10.4692843,25.2784195 L10.6339031,23.4197123 Z"/>
</svg>
